!!!SOCIAL_FUNCTION:	miscellaneous songs
!!!PDT:	1918

Specific Region: Dakotas, Minnesota, Montana, Nebraska
!!!REG: Dakotas and Montana
!!!LING_GROUP: Siouan
!!!LANG: Tone
!!!OTL@ENG: I Have Been Helping
!!!ONM: No. 236
**kern
*Imale
*clefF4
*k[b-e-]
*M2/4
*MM72
8g
8g
4g
=2
8d
8g
16g
8.d
=3
8d
8c
4B-
=4
8d
8d
8g
8d
=5
8c
8c
16c
8.B-
=6
16c
8.B-
4B-
=7||
*M3/4
8G
8B-
8B-
8G
8G
8G
=8||
*M2/4
2G
=9
8B-
8B-
4c
=10||
*M3/4
8B-
8c
16c
8.B-
8B-
8B-
=11||
*M2/4
16B-
8.G
8G
8G
=12
2G
=13
2G
=14
8d
8c
8B-
8B-
=15||
*M3/4
2.B-
=16||
*M2/4
8d
8d
8f
8d
=17
8c
8c
16c
8.B-
=18||
*M3/4
16c
8.B-
8B-
8B-
8G
8B-
=19||
*M2/4
4B-
4c
=20||
*M3/4
8B-
8c
(16c
16B-)
8B-
8B-
8B-
=21
16B-
[8.G
4G]
8G
8G
=22
2.G
==
*-
!!!CNT: Native American -- Sioux
!!!MRD: 1911/07//-1914///
!!!OCL: Frances Densmore
!!!YOR1: Teton Sioux Music, Bulletin 61,
!!!YOR2: Bureau of American Ethnology, Smithsonian Institution
!!!PPR: Government Printing Office
!!!PPP: Washington, D.C.
!!!PDT: 1918///
!!!ENC: Craig Stuart Sapp
!!!END: 2002/03/25/
!!!EEV: 2002/03/31/
!!!AGN: Sisseton Song
!!!MPN@@SIO: Mato'-ite'-wakang
!!!MPN@ENG: Holy-Face Bear
!!!TXO: Santee Sioux
!!!MLC: Sisseton, South Dakota, United States of America
!!!ARL: 45.6/-97.1:
!!!catalog: Catalogue No. 644
!!!PPG: 514
!!!EFL: 241/245
!!!VTS: 2585380901
